X: 735
T: Paddy's surprise
C: anon.
O: Ireland
B: Francis O'Neill: "The Dance Music of Ireland" (1907) no. 735
R: Reel
Z: Transcribed by Frank Nordberg - http://www.musicaviva.com
F: http://www.musicaviva.com/abc/tunes/ireland/oneill-1001/oneill-1001-073
5.abc
M: C|
L: 1/8
K: G
(3(DEF)|G2(BA) GABc|dBec dBAB|G2(BA) GABc|dBAB GFED|G2(BA) GABc|dBec d2(3
(def)|gfge dBge|
dBAB G2||(3(def)|gfgd edBd|gabg agef|gfgd edBd|cABG AGEG|gfgd edBd|gabg a
gef|gfge dBge|dBAB G2|]
W:
W:
W: From Musica Viva - http://www.musicaviva.com
W: the Internet center for free sheet music downloads.


